**harm	**harte	**kern	**silbe	**rhyme	**timestamp	**phrase	**leadinstrument
*M4/4	*M4/4	*ICvox	*	*	*	*	*
*	*	*VRlead	*	*	*	*	*
*	*	*Hstimme	*	*	*	*	*
*E:	*E:	*E:	*	*	*	*	*
*	*	*M4/4	*	*	*	*	*
*	*	*clefF4	*	*	*	*	*
1r;	N	r;	.	.	0	.	r
=1	=1	=1	=1	=1	=1	=1	=1
*>Letter>A	*>Letter>A	*>Letter>A	*>Letter>A	*>Letter>A	*>Letter>A	*>Letter>A	*>Letter>A
*>Label>Intro	*>Label>Intro	*>Label>Intro	*>Label>Intro	*>Label>Intro	*>Label>Intro	*>Label>Intro	*>Label>Intro
1I	E:maj	1r	.	.	0.372	newline	guitar
=2	=2	=2	=2	=2	=2	=2	=2
1I	E:maj	1r	.	.	2.438	.	guitar
=3	=3	=3	=3	=3	=3	=3	=3
1I	E:maj	1r	.	.	4.505	.	guitar
=4	=4	=4	=4	=4	=4	=4	=4
1I	E:maj	2r	.	.	6.572	.	guitar
.	.	8r	.	.	.	.	.
.	.	8G#	There's	.	.	.	.
.	.	8A	a	.	.	.	.
.	.	[8B	storm	.	.	.	.
=5	=5	=5	=5	=5	=5	=5	=5
*>Letter>B	*>Letter>B	*>Letter>B	*>Letter>B	*>Letter>B	*>Letter>B	*>Letter>B	*>Letter>B
*>Label>Verse	*>Label>Verse	*>Label>Verse	*>Label>Verse	*>Label>Verse	*>Label>Verse	*>Label>Verse	*>Label>Verse
1I	E:maj	4.B]	_	.	8.639	newline	voice
.	.	8B	a-	.	.	.	.
.	.	4.B	-cross	.	.	.	.
.	.	8F#	the	.	.	.	.
=6	=6	=6	=6	=6	=6	=6	=6
1I	E:maj	8G#	val-	.	10.642	.	voice
.	.	[4.G#	-ley,	a	.	.	.
.	.	4.G#]	_	.	.	.	.
.	.	[8A	clouds	.	.	.	.
=7	=7	=7	=7	=7	=7	=7	=7
1IV	A:maj	4.A]	_	.	12.646	.	voice
.	.	8B	are	.	.	.	.
.	.	8A	rol-	.	.	.	.
.	.	4E	-ling	.	.	.	.
.	.	[8C#	in	.	.	.	.
=8	=8	=8	=8	=8	=8	=8	=8
1IV	A:maj	4C#]	_	.	14.649	.	voice
.	.	4r	.	.	.	.	.
.	.	4.r	.	.	.	.	.
.	.	8C#	the	.	.	.	.
=9	=9	=9	=9	=9	=9	=9	=9
1V	B:maj	8B	af-	.	16.653	newline	voice
.	.	8B	-ter-	.	.	.	.
.	.	[4B	-noon	.	.	.	.
.	.	4.B]	_	.	.	.	.
.	.	8B-	is	.	.	.	.
=10	=10	=10	=10	=10	=10	=10	=10
1V7	B:7	8A	hea-	.	18.716	.	voice
.	.	[4.BB	-vy	a	.	.	.
.	.	4BB]	_	.	.	.	.
.	.	8E	on	.	.	.	.
.	.	8F#	your	.	.	.	.
=11	=11	=11	=11	=11	=11	=11	=11
1I	E:maj	8F#	shoul-	(B	20.778	.	voice
.	.	[4.G#	-ders	b)	.	.	.
.	.	2G#]	_	.	.	.	.
=12	=12	=12	=12	=12	=12	=12	=12
1I	E:maj	2r	.	.	22.841	.	voice
.	.	4r	.	.	.	.	.
.	.	8r	.	.	.	.	.
.	.	16G#	There's	.	.	.	.
.	.	16A	a	.	.	.	.
=13	=13	=13	=13	=13	=13	=13	=13
*>Letter>B	*>Letter>B	*>Letter>B	*>Letter>B	*>Letter>B	*>Letter>B	*>Letter>B	*>Letter>B
*>Label>Verse	*>Label>Verse	*>Label>Verse	*>Label>Verse	*>Label>Verse	*>Label>Verse	*>Label>Verse	*>Label>Verse
1I	E:maj	8B	truck	.	24.903	newline	voice
.	.	4B	out	.	.	.	.
.	.	[8c#	on	.	.	.	.
.	.	4.c#]	_	.	.	.	.
.	.	8A	the	.	.	.	.
=14	=14	=14	=14	=14	=14	=14	=14
1Im7	E:7	8G#	four	.	26.956	.	voice
.	.	[4.F#	lane,	.	.	.	.
.	.	4.F#]	_	.	.	.	.
.	.	8G#	a	.	.	.	.
=15	=15	=15	=15	=15	=15	=15	=15
1IV	A:maj	4.A	mile	.	29.009	.	voice
.	.	8B	or	.	.	.	.
.	.	4A	more	.	.	.	.
.	.	8E	a-	.	.	.	.
.	.	[8C#	-way,	.	.	.	.
=16	=16	=16	=16	=16	=16	=16	=16
1IV	A:maj	2C#]	_	.	31.061	.	voice
.	.	4.r	.	.	.	.	.
.	.	8C#	the	.	.	.	.
=17	=17	=17	=17	=17	=17	=17	=17
1V	B:maj	8B	whin-	.	33.114	newline	voice
.	.	4B	-ing	.	.	.	.
.	.	4.B	of	.	.	.	.
.	.	8B-	his	.	.	.	.
.	.	[8A	wheels	.	.	.	.
=18	=18	=18	=18	=18	=18	=18	=18
1V7	B:7	2A]	_	.	35.174	.	voice
.	.	6A	hust	.	.	.	.
.	.	6G#	makes	.	.	.	.
.	.	6F#	it	.	.	.	.
=19	=19	=19	=19	=19	=19	=19	=19
1I	E:maj	8F#	col-	(B	37.233	.	voice
.	.	[8E	-der	b)	.	.	.
.	.	2.E]	_	.	.	.	.
=20	=20	=20	=20	=20	=20	=20	=20
1I	E:maj	2.r	.	.	39.293	.	voice
.	.	8r	.	.	.	.	.
.	.	16G#	He's	.	.	.	.
.	.	16A	an	.	.	.	.
=21	=21	=21	=21	=21	=21	=21	=21
*>Letter>B	*>Letter>B	*>Letter>B	*>Letter>B	*>Letter>B	*>Letter>B	*>Letter>B	*>Letter>B
*>Label>Verse	*>Label>Verse	*>Label>Verse	*>Label>Verse	*>Label>Verse	*>Label>Verse	*>Label>Verse	*>Label>Verse
1I	E:maj	4.B	ho-	.	41.353	newline	voice
.	.	8B	-ur	.	.	.	.
.	.	4.c#	'way	.	.	.	.
.	.	8F#	from	.	.	.	.
=22	=22	=22	=22	=22	=22	=22	=22
1Im7	E:7	8G#	ri-	.	43.418	.	voice
.	.	[8G#	-ding	.	.	.	.
.	.	2G#]	_	.	.	.	.
.	.	8F#	on	.	.	.	.
.	.	8G#	your	.	.	.	.
=23	=23	=23	=23	=23	=23	=23	=23
1IV	A:maj	4.A	prayers	.	45.483	.	voice
.	.	[8B	up	.	.	.	.
.	.	8B]	_	.	.	.	.
.	.	8A	in	.	.	.	.
.	.	8E	the	.	.	.	.
.	.	[8C#	sky	.	.	.	.
=24	=24	=24	=24	=24	=24	=24	=24
1IV	A:maj	2C#]	_	.	47.547	.	voice
.	.	2r	.	.	.	.	.
=25	=25	=25	=25	=25	=25	=25	=25
1V	B:maj	8B	ten	.	49.612	newline	voice
.	.	4B	days	.	.	.	.
.	.	[8B	on	.	.	.	.
.	.	4B]	_	.	.	.	.
.	.	8B-	the	.	.	.	.
.	.	[8A	road	.	.	.	.
=26	=26	=26	=26	=26	=26	=26	=26
1V7	B:7	2A_	_	.	51.66	.	voice
.	.	8A]	_	.	.	.	.
.	.	8r	.	.	.	.	.
.	.	8G#	bare-	.	.	.	.
.	.	8F#	-ly	.	.	.	.
=27	=27	=27	=27	=27	=27	=27	=27
1I	E:maj	1G#	gone	C	53.707	.	voice
=28	=28	=28	=28	=28	=28	=28	=28
1I	E:maj	2r	.	.	55.754	.	voice
.	.	4r	.	.	.	.	.
.	.	16G#	There's	.	.	.	.
.	.	16A	a	.	.	.	.
.	.	[8B	fire	.	.	.	.
=29	=29	=29	=29	=29	=29	=29	=29
*>Letter>B	*>Letter>B	*>Letter>B	*>Letter>B	*>Letter>B	*>Letter>B	*>Letter>B	*>Letter>B
*>Label>Verse	*>Label>Verse	*>Label>Verse	*>Label>Verse	*>Label>Verse	*>Label>Verse	*>Label>Verse	*>Label>Verse
1I	E:maj	2B_	_	.	57.802	newline	voice
.	.	8B]	_	.	.	.	.
.	.	4c#	soft-	.	.	.	.
.	.	8B	-ly	.	.	.	.
=30	=30	=30	=30	=30	=30	=30	=30
1Im7	E:7	8G#	bur-	.	59.852	.	voice
.	.	[8G#	-ning,	.	.	.	.
.	.	4G#_	_	.	.	.	.
.	.	4G#]	_	.	.	.	.
.	.	4r	.	.	.	.	.
=31	=31	=31	=31	=31	=31	=31	=31
1IV	A:maj	8G#	sup-	.	61.902	.	voice
.	.	4B	-per's	.	.	.	.
.	.	[8A	on	.	.	.	.
.	.	4A]	_	.	.	.	.
.	.	8E	the	.	.	.	.
.	.	[8C#	stove	.	.	.	.
=32	=32	=32	=32	=32	=32	=32	=32
1IV	A:maj	2C#]	_	.	63.952	.	voice
.	.	4r	.	.	.	.	.
.	.	16B	it's	.	.	.	.
.	.	16B	the	.	.	.	.
.	.	[8B	light	.	.	.	.
=33	=33	=33	=33	=33	=33	=33	=33
1V	B:maj	2B]	_	.	66.002	newline	voice
.	.	8B	in	.	.	.	.
.	.	4B-	your	.	.	.	.
.	.	[8A	eyes	.	.	.	.
=34	=34	=34	=34	=34	=34	=34	=34
1V7	B:7	2A_	_	.	68.035	.	voice
.	.	8A]	_	.	.	.	.
.	.	8F#	that	.	.	.	.
.	.	8G#	makes	.	.	.	.
.	.	8D#	him	.	.	.	.
=35	=35	=35	=35	=35	=35	=35	=35
1I	E:maj	1E	warm	C	70.068	.	voice
=36	=36	=36	=36	=36	=36	=36	=36
1I	E:maj	1r	.	.	72.102	.	voice
=37	=37	=37	=37	=37	=37	=37	=37
*>Letter>C	*>Letter>C	*>Letter>C	*>Letter>C	*>Letter>C	*>Letter>C	*>Letter>C	*>Letter>C
*>Label>Chorus	*>Label>Chorus	*>Label>Chorus	*>Label>Chorus	*>Label>Chorus	*>Label>Chorus	*>Label>Chorus	*>Label>Chorus
1IV	A:maj	4.c#	Hey,	.	74.135	newline	voice
.	.	8c#	it's	.	.	.	.
.	.	4.c#	good	.	.	.	.
.	.	8c#	to	.	.	.	.
=38	=38	=38	=38	=38	=38	=38	=38
1V	B:maj	8B	be	.	76.192	.	voice
.	.	4B	back	.	.	.	.
.	.	[8B	home	.	.	.	.
.	.	4.B]	_	.	.	.	.
.	.	8G#	a-	.	.	.	.
=39	=39	=39	=39	=39	=39	=39	=39
1I	E:maj	2.G#	-gain	D	78.249	.	voice
.	.	4r	.	.	.	.	.
=40	=40	=40	=40	=40	=40	=40	=40
1I	E:maj	1r	.	.	80.307	.	voice
=41	=41	=41	=41	=41	=41	=41	=41
1IV	A:maj	4r	.	.	82.364	newline	voice
.	.	8c#	Some-	.	.	.	.
.	.	[8c#	-times	.	.	.	.
.	.	2c#]	_	.	.	.	.
=42	=42	=42	=42	=42	=42	=42	=42
1V	B:maj	8B	this	.	84.426	.	voice
.	.	4B	old	.	.	.	.
.	.	[8B	farm	.	.	.	.
.	.	4.B]	_	.	.	.	.
.	.	8A	feels	.	.	.	.
=43	=43	=43	=43	=43	=43	=43	=43
1I	E:maj	8G#	_	.	86.488	.	voice
.	.	4G#	like	.	.	.	.
.	.	8B	a	.	.	.	.
.	.	4G#	long	.	.	.	.
.	.	4F#	lost	.	.	.	.
=44	=44	=44	=44	=44	=44	=44	=44
1IV	A:maj	4E	friend	D	88.55	.	voice
.	.	4r	.	.	.	.	.
.	.	4.c#	Yes,	.	.	.	.
.	.	8B	and	.	.	.	.
=45	=45	=45	=45	=45	=45	=45	=45
1V	B:maj	4B	hey,	.	90.612	newline	voice
.	.	8B	it's	.	.	.	.
.	.	[8c#	good	.	.	.	.
.	.	4c#]	_	.	.	.	.
.	.	8r	.	.	.	.	.
.	.	8G#	to	.	.	.	.
=46	=46	=46	=46	=46	=46	=46	=46
1V7	B:7	8A	be	.	92.647	.	voice
.	.	4.A	back	.	.	.	.
.	.	4G#	home	.	.	.	.
.	.	8D#	a-	.	.	.	.
.	.	[8E	-gain	D	.	.	.
=47	=47	=47	=47	=47	=47	=47	=47
1I	E:maj	2E]	_	.	94.683	.	voice
.	.	2r	.	.	.	.	.
=48	=48	=48	=48	=48	=48	=48	=48
1I	E:maj	2r	.	.	96.718	.	voice
.	.	4.r	.	.	.	.	.
.	.	[8B	There's	.	.	.	.
=49	=49	=49	=49	=49	=49	=49	=49
*>Letter>B	*>Letter>B	*>Letter>B	*>Letter>B	*>Letter>B	*>Letter>B	*>Letter>B	*>Letter>B
*>Label>Verse	*>Label>Verse	*>Label>Verse	*>Label>Verse	*>Label>Verse	*>Label>Verse	*>Label>Verse	*>Label>Verse
1I	E:maj	8B]	_	.	98.754	newline	voice
.	.	4B	all	.	.	.	.
.	.	8B	the	.	.	.	.
.	.	4.c#	news	.	.	.	.
.	.	8F#	to	.	.	.	.
=50	=50	=50	=50	=50	=50	=50	=50
1Im7	E:7	8G#	tell	.	100.784	.	voice
.	.	4.G#	him,	.	.	.	.
.	.	2r	.	.	.	.	.
=51	=51	=51	=51	=51	=51	=51	=51
1IV	A:maj	4.A	how'd	.	102.813	.	voice
.	.	[8B	you	.	.	.	.
.	.	8B]	_	.	.	.	.
.	.	8A	spend	.	.	.	.
.	.	8E	your	.	.	.	.
.	.	[8C#	time	.	.	.	.
=52	=52	=52	=52	=52	=52	=52	=52
1IV	A:maj	2C#]	_	.	104.843	.	voice
.	.	2r	.	.	.	.	.
=53	=53	=53	=53	=53	=53	=53	=53
1V	B:maj	4r	.	.	106.873	newline	voice
.	.	8B	what's	.	.	.	.
.	.	8B	the	.	.	.	.
.	.	8B	lat-	.	.	.	.
.	.	4B-	-est	.	.	.	.
.	.	[8A	thing	.	.	.	.
=54	=54	=54	=54	=54	=54	=54	=54
1V7	B:7	2A_	_	.	108.903	.	voice
.	.	8A]	_	.	.	.	.
.	.	8F#	the	.	.	.	.
.	.	8G#	neigh-	.	.	.	.
.	.	8F#	-bors	.	.	.	.
=55	=55	=55	=55	=55	=55	=55	=55
1I	E:maj	1G#	say?	E	110.934	.	voice
=56	=56	=56	=56	=56	=56	=56	=56
1I	E:maj	2r	.	.	112.965	.	voice
.	.	4r	.	.	.	.	.
.	.	8r	.	.	.	.	.
.	.	16G#	And	.	.	.	.
.	.	16A	your	.	.	.	.
=57	=57	=57	=57	=57	=57	=57	=57
*>Letter>B	*>Letter>B	*>Letter>B	*>Letter>B	*>Letter>B	*>Letter>B	*>Letter>B	*>Letter>B
*>Label>Verse	*>Label>Verse	*>Label>Verse	*>Label>Verse	*>Label>Verse	*>Label>Verse	*>Label>Verse	*>Label>Verse
1I	E:maj	8B	mo-	.	114.995	newline	voice
.	.	4.B	-ther	.	.	.	.
.	.	4.c#	called	.	.	.	.
.	.	[8B	last	.	.	.	.
=58	=58	=58	=58	=58	=58	=58	=58
1Im7	E:7	8B]	_	.	117.048	.	voice
.	.	8G#	Fri-	.	.	.	.
.	.	2G#	-day,	.	.	.	.
.	.	4r	.	.	.	.	.
=59	=59	=59	=59	=59	=59	=59	=59
1IV	A:maj	8A	Sun-	.	119.101	.	voice
.	.	[4.B	-shine	.	.	.	.
.	.	8B]	_	.	.	.	.
.	.	8A	made	.	.	.	.
.	.	8E	her	.	.	.	.
.	.	[8C#	cry	.	.	.	.
=60	=60	=60	=60	=60	=60	=60	=60
1IV	A:maj	2C#]	_	.	121.153	.	voice
.	.	4.r	.	.	.	.	.
.	.	8C#	you	.	.	.	.
=61	=61	=61	=61	=61	=61	=61	=61
1V	B:maj	4.B	felt	.	123.206	newline	voice
.	.	8B	the	.	.	.	.
.	.	4B	ba-	.	.	.	.
.	.	8B-	-by	.	.	.	.
.	.	[8A	move	.	.	.	.
=62	=62	=62	=62	=62	=62	=62	=62
1V7	B:7	4.A]	_	.	125.24	.	voice
.	.	[8G#	just	.	.	.	.
.	.	8G#]	_	.	.	.	.
.	.	8G#	yes-	.	.	.	.
.	.	8D#	-ter-	.	.	.	.
.	.	[8E	-day	E	.	.	.
=63	=63	=63	=63	=63	=63	=63	=63
1I	E:maj	1E]	_	.	127.274	.	voice
=64	=64	=64	=64	=64	=64	=64	=64
1I	E:maj	1r	.	.	129.308	.	voice
=65	=65	=65	=65	=65	=65	=65	=65
*>Letter>C	*>Letter>C	*>Letter>C	*>Letter>C	*>Letter>C	*>Letter>C	*>Letter>C	*>Letter>C
*>Label>Chorus	*>Label>Chorus	*>Label>Chorus	*>Label>Chorus	*>Label>Chorus	*>Label>Chorus	*>Label>Chorus	*>Label>Chorus
1IV	A:maj	4.c#	Hey,	.	131.343	newline	voice
.	.	8c#	it's	.	.	.	.
.	.	4.c#	good	.	.	.	.
.	.	8c#	to	.	.	.	.
=66	=66	=66	=66	=66	=66	=66	=66
1V	B:maj	8B	be	.	133.379	.	voice
.	.	4B	back	.	.	.	.
.	.	[8B	home	.	.	.	.
.	.	4.B]	_	.	.	.	.
.	.	8G#	a-	.	.	.	.
=67	=67	=67	=67	=67	=67	=67	=67
1I	E:maj	2.G#	-gain	D	135.416	.	voice
.	.	16G#	yes	.	.	.	.
.	.	16D#	it	.	.	.	.
.	.	[8E	is	.	.	.	.
=68	=68	=68	=68	=68	=68	=68	=68
1I	E:maj	4E]	_	.	137.452	.	voice
.	.	4r	.	.	.	.	.
.	.	2r	.	.	.	.	.
=69	=69	=69	=69	=69	=69	=69	=69
1IV	A:maj	4r	.	.	139.489	newline	voice
.	.	8c#	Some-	.	.	.	.
.	.	[8c#	-times	.	.	.	.
.	.	2c#]	_	.	.	.	.
=70	=70	=70	=70	=70	=70	=70	=70
1V	B:maj	8B	this	.	141.536	.	voice
.	.	4B	old	.	.	.	.
.	.	[8B	farm	.	.	.	.
.	.	4.B]	_	.	.	.	.
.	.	8A	feels	.	.	.	.
=71	=71	=71	=71	=71	=71	=71	=71
1I	E:maj	8G#	_	.	143.583	.	voice
.	.	4G#	like	.	.	.	.
.	.	8B	a	.	.	.	.
.	.	4G#	long	.	.	.	.
.	.	4F#	lost	.	.	.	.
=72	=72	=72	=72	=72	=72	=72	=72
1IV	A:maj	4E	friend	D	145.629	.	voice
.	.	4r	.	.	.	.	.
.	.	4.c#	Yes,	.	.	.	.
.	.	8B	and	.	.	.	.
=73	=73	=73	=73	=73	=73	=73	=73
1V	B:maj	4B	hey,	.	147.676	newline	voice
.	.	8B	it's	.	.	.	.
.	.	[8c#	good	.	.	.	.
.	.	4c#]	_	.	.	.	.
.	.	8r	.	.	.	.	.
.	.	8G#	to	.	.	.	.
=74	=74	=74	=74	=74	=74	=74	=74
1V7	B:7	8A	be	.	149.696	.	voice
.	.	4.A	back	.	.	.	.
.	.	4G#	home	.	.	.	.
.	.	8D#	a-	.	.	.	.
.	.	[8E	-gain	D	.	.	.
=75	=75	=75	=75	=75	=75	=75	=75
1I	E:maj	2E]	_	.	151.716	.	voice
.	.	2r	.	.	.	.	.
=76	=76	=76	=76	=76	=76	=76	=76
1Im7	E:7	1r	.	.	153.736	.	voice
=77	=77	=77	=77	=77	=77	=77	=77
*>Letter>D	*>Letter>D	*>Letter>D	*>Letter>D	*>Letter>D	*>Letter>D	*>Letter>D	*>Letter>D
*>Label>Bridge	*>Label>Bridge	*>Label>Bridge	*>Label>Bridge	*>Label>Bridge	*>Label>Bridge	*>Label>Bridge	*>Label>Bridge
1IV	A:maj	4.e	Oh,	.	155.756	newline	voice
.	.	8e	the	.	.	.	.
.	.	4.e	time	.	.	.	.
.	.	8c#	that	.	.	.	.
=78	=78	=78	=78	=78	=78	=78	=78
1V	B:maj	8d#	I	.	157.791	.	voice
.	.	4d#	can	.	.	.	.
.	.	4.d#	lay	.	.	.	.
.	.	8c#	this	.	.	.	.
.	.	[8B	tired	.	.	.	.
=79	=79	=79	=79	=79	=79	=79	=79
1I	E:maj	4.B]	_	.	159.825	.	voice
.	.	[8c#	old	.	.	.	.
.	.	8c#]	_	.	.	.	.
.	.	8B	bo-	.	.	.	.
.	.	8G#	-dy	.	.	.	.
.	.	[8E	down	.	.	.	.
=80	=80	=80	=80	=80	=80	=80	=80
1IV	A:maj	2E]	_	.	161.86	.	voice
.	.	2r	.	.	.	.	.
=81	=81	=81	=81	=81	=81	=81	=81
1ii	F#:min	4F#	Feel	.	163.894	newline	voice
.	.	8A	your	.	.	.	.
.	.	[8c#	fin-	.	.	.	.
.	.	8c#]	_	.	.	.	.
.	.	[4.e	-gers	.	.	.	.
=82	=82	=82	=82	=82	=82	=82	=82
1V	B:maj	8e]	_	.	165.925	.	voice
.	.	8d#	feat-	.	.	.	.
.	.	8e	-her	.	.	.	.
.	.	[8d#	soft	.	.	.	.
.	.	4d#]	_	.	.	.	.
.	.	8r	.	.	.	.	.
.	.	8E	u-	.	.	.	.
=83	=83	=83	=83	=83	=83	=83	=83
1I	E:maj	4G#	-pon	.	167.955	.	voice
.	.	[2.B	me	.	.	.	.
=84	=84	=84	=84	=84	=84	=84	=84
1Im7	E:7	4B]	_	.	169.985	.	voice
.	.	4r	.	.	.	.	.
.	.	4.r	.	.	.	.	.
.	.	8E	The	.	.	.	.
=85	=85	=85	=85	=85	=85	=85	=85
1IV	A:maj	8e	kis-	.	172.016	newline	voice
.	.	[4.e	-ses	.	.	.	.
.	.	8e]	_	.	.	.	.
.	.	8e	that	.	.	.	.
.	.	4f#	I	.	.	.	.
=86	=86	=86	=86	=86	=86	=86	=86
1V	B:maj	8e	live	.	174.041	.	voice
.	.	[8d#	for,	.	.	.	.
.	.	2d#_	_	.	.	.	.
.	.	8d#]	_	.	.	.	.
.	.	8c#	the	.	.	.	.
=87	=87	=87	=87	=87	=87	=87	=87
1I	E:maj	4.B	love	.	176.066	.	voice
.	.	8c#	that	.	.	.	.
.	.	4B	lights	.	.	.	.
.	.	8G#	my	.	.	.	.
.	.	[8E	way	.	.	.	.
=88	=88	=88	=88	=88	=88	=88	=88
1IV	A:maj	2.E]	_	.	178.092	.	voice
.	.	8r	.	.	.	.	.
.	.	8E	the	.	.	.	.
=89	=89	=89	=89	=89	=89	=89	=89
1ii	F#:min	16A	hap-	.	180.117	newline	voice
.	.	16A	-pi-	.	.	.	.
.	.	[8A	-ness	.	.	.	.
.	.	2A_	_	.	.	.	.
.	.	8A]	_	.	.	.	.
.	.	8c#	that	.	.	.	.
=90	=90	=90	=90	=90	=90	=90	=90
1IV	A:maj	8e	li-	.	182.166	.	voice
.	.	4.e	-ving	.	.	.	.
.	.	8e	with	.	.	.	.
.	.	4.e	you	.	.	.	.
=91	=91	=91	=91	=91	=91	=91	=91
1V	B:maj	4c#	brings	.	184.215	.	voice
.	.	[2.B	me	.	.	.	.
=92	=92	=92	=92	=92	=92	=92	=92
1V	B:maj	2.B]	_	.	186.264	.	voice
.	.	8B	It's	.	.	.	.
.	.	8B	the	.	.	.	.
=93	=93	=93	=93	=93	=93	=93	=93
*>Letter>B	*>Letter>B	*>Letter>B	*>Letter>B	*>Letter>B	*>Letter>B	*>Letter>B	*>Letter>B
*>Label>Verse	*>Label>Verse	*>Label>Verse	*>Label>Verse	*>Label>Verse	*>Label>Verse	*>Label>Verse	*>Label>Verse
1I	E:maj	8B	sweet-	.	188.312	newline	voice
.	.	4B	-est	.	.	.	.
.	.	4.c#	thing	.	.	.	.
.	.	8B	I	.	.	.	.
.	.	8G#	know	.	.	.	.
=94	=94	=94	=94	=94	=94	=94	=94
1Im7	E:7	2.G#	of,	.	190.351	.	voice
.	.	8r	.	.	.	.	.
.	.	[8A	just	.	.	.	.
=95	=95	=95	=95	=95	=95	=95	=95
1IV	A:maj	8A]	_	.	192.389	.	voice
.	.	8A	spen-	.	.	.	.
.	.	8B	-ding	.	.	.	.
.	.	[8A	time	.	.	.	.
.	.	4A]	_	.	.	.	.
.	.	8E	with	.	.	.	.
.	.	[8C#	you	.	.	.	.
=96	=96	=96	=96	=96	=96	=96	=96
1IV	A:maj	2C#]	_	.	194.427	.	voice
.	.	4r	.	.	.	.	.
.	.	8r	.	.	.	.	.
.	.	16G#	It's	.	.	.	.
.	.	16A	the	.	.	.	.
=97	=97	=97	=97	=97	=97	=97	=97
1V	B:maj	16B	lit-	.	196.466	newline	voice
.	.	16B	-tle	.	.	.	.
.	.	[4.B	things	.	.	.	.
.	.	2B]	_	.	.	.	.
=98	=98	=98	=98	=98	=98	=98	=98
1V7	B:7	8r	.	.	198.491	.	voice
.	.	8F#	that	.	.	.	.
.	.	8G#	make	.	.	.	.
.	.	8E	a	.	.	.	.
.	.	4F#	house	.	.	.	.
.	.	8.r	.	.	.	.	.
.	.	16E	a	.	.	.	.
=99	=99	=99	=99	=99	=99	=99	=99
1I	E:maj	1G#	home	C	200.516	.	voice
=100	=100	=100	=100	=100	=100	=100	=100
1I	E:maj	2.r	.	.	202.541	.	voice
.	.	8B	Like	.	.	.	.
.	.	8B	a	.	.	.	.
=101	=101	=101	=101	=101	=101	=101	=101
*>Letter>B	*>Letter>B	*>Letter>B	*>Letter>B	*>Letter>B	*>Letter>B	*>Letter>B	*>Letter>B
*>Label>Verse	*>Label>Verse	*>Label>Verse	*>Label>Verse	*>Label>Verse	*>Label>Verse	*>Label>Verse	*>Label>Verse
1I	E:maj	[2B	fire	.	204.566	newline	voice
.	.	8B]	_	.	.	.	.
.	.	4c#	soft-	.	.	.	.
.	.	[8e	-ly	.	.	.	.
=102	=102	=102	=102	=102	=102	=102	=102
1I	E:maj	8e]	_	.	206.582	.	voice
.	.	4B	bur-	.	.	.	.
.	.	[8G#	-ning	.	.	.	.
.	.	2G#]	_	.	.	.	.
=103	=103	=103	=103	=103	=103	=103	=103
1IV	A:maj	8A	sup-	.	208.597	.	voice
.	.	4B	-per	.	.	.	.
.	.	4.A	on	.	.	.	.
.	.	8E	the	.	.	.	.
.	.	[8C#	stove	.	.	.	.
=104	=104	=104	=104	=104	=104	=104	=104
1IV	A:maj	2.C#]	_	.	210.613	.	voice
.	.	8r	.	.	.	.	.
.	.	8C#	the	.	.	.	.
=105	=105	=105	=105	=105	=105	=105	=105
1V	B:maj	2B	light	.	212.628	newline	voice
.	.	8B	in	.	.	.	.
.	.	4B-	your	.	.	.	.
.	.	[8A	eyes	.	.	.	.
=106	=106	=106	=106	=106	=106	=106	=106
1V7	B:7	2A_	_	.	214.678	.	voice
.	.	8A]	_	.	.	.	.
.	.	8F#	that	.	.	.	.
.	.	8G#	makes	.	.	.	.
.	.	8D#	me	.	.	.	.
=107	=107	=107	=107	=107	=107	=107	=107
1I	E:maj	1E	warm	C	216.728	.	voice
=108	=108	=108	=108	=108	=108	=108	=108
1Im7	E:7	1r	.	.	218.777	.	voice
=109	=109	=109	=109	=109	=109	=109	=109
*>Letter>C	*>Letter>C	*>Letter>C	*>Letter>C	*>Letter>C	*>Letter>C	*>Letter>C	*>Letter>C
*>Label>Chorus	*>Label>Chorus	*>Label>Chorus	*>Label>Chorus	*>Label>Chorus	*>Label>Chorus	*>Label>Chorus	*>Label>Chorus
1IV	A:maj	4.c#	Hey,	.	220.827	newline	voice
.	.	8c#	it's	.	.	.	.
.	.	4.c#	good	.	.	.	.
.	.	8c#	to	.	.	.	.
=110	=110	=110	=110	=110	=110	=110	=110
1V	B:maj	8B	be	.	222.858	.	voice
.	.	4B	back	.	.	.	.
.	.	[8B	home	.	.	.	.
.	.	4.B]	_	.	.	.	.
.	.	8G#	a-	.	.	.	.
=111	=111	=111	=111	=111	=111	=111	=111
1I	E:maj	2.G#	-gain	D	224.889	.	voice
.	.	4r	.	.	.	.	.
=112	=112	=112	=112	=112	=112	=112	=112
1I	E:maj	1r	.	.	226.92	.	voice
=113	=113	=113	=113	=113	=113	=113	=113
1IV	A:maj	4r	.	.	228.951	newline	voice
.	.	8c#	Some-	.	.	.	.
.	.	[8c#	-times	.	.	.	.
.	.	2c#]	_	.	.	.	.
=114	=114	=114	=114	=114	=114	=114	=114
1V	B:maj	8B	this	.	230.973	.	voice
.	.	4B	old	.	.	.	.
.	.	[8B	farm	.	.	.	.
.	.	4.B]	_	.	.	.	.
.	.	8A	feels	.	.	.	.
=115	=115	=115	=115	=115	=115	=115	=115
1I	E:maj	8G#	_	.	232.995	.	voice
.	.	4G#	like	.	.	.	.
.	.	8B	a	.	.	.	.
.	.	4G#	long	.	.	.	.
.	.	4F#	lost	.	.	.	.
=116	=116	=116	=116	=116	=116	=116	=116
1IV	A:maj	4E	friend	D	235.017	.	voice
.	.	4r	.	.	.	.	.
.	.	4.c#	Yes,	.	.	.	.
.	.	8B	and	.	.	.	.
=117	=117	=117	=117	=117	=117	=117	=117
1V	B:maj	4B	hey,	.	237.039	newline	voice
.	.	8B	it's	.	.	.	.
.	.	[8c#	good	.	.	.	.
.	.	4c#]	_	.	.	.	.
.	.	8r	.	.	.	.	.
.	.	8G#	to	.	.	.	.
=118	=118	=118	=118	=118	=118	=118	=118
1V7	B:7	8A	be	.	239.067	.	voice
.	.	4.A	back	.	.	.	.
.	.	4G#	home	.	.	.	.
.	.	8D#	a-	.	.	.	.
.	.	[8E	-gain	D	.	.	.
=119	=119	=119	=119	=119	=119	=119	=119
1I	E:maj	2E]	_	.	241.096	.	voice
.	.	2r	.	.	.	.	.
=120	=120	=120	=120	=120	=120	=120	=120
1I	E:maj	1r	.	.	243.124	.	voice
=121	=121	=121	=121	=121	=121	=121	=121
*>Letter>C	*>Letter>C	*>Letter>C	*>Letter>C	*>Letter>C	*>Letter>C	*>Letter>C	*>Letter>C
*>Label>Chorus	*>Label>Chorus	*>Label>Chorus	*>Label>Chorus	*>Label>Chorus	*>Label>Chorus	*>Label>Chorus	*>Label>Chorus
1IV	A:maj	4.c#	Hey,	.	245.153	newline	voice
.	.	8c#	it's	.	.	.	.
.	.	4.c#	good	.	.	.	.
.	.	8c#	to	.	.	.	.
=122	=122	=122	=122	=122	=122	=122	=122
1V7	B:7	8B	be	.	247.157	.	voice
.	.	4B	back	.	.	.	.
.	.	[8c#	home	.	.	.	.
.	.	8c#]	_	.	.	.	.
.	.	4B	_	.	.	.	.
.	.	8G#	a-	.	.	.	.
=123	=123	=123	=123	=123	=123	=123	=123
1I	E:maj	[2G#	-gain	D	249.162	.	voice
.	.	8G#]	_	.	.	.	.
.	.	8B	you	.	.	.	.
.	.	8G#	know	.	.	.	.
.	.	8D#	it	.	.	.	.
=124	=124	=124	=124	=124	=124	=124	=124
1Im7	E:7	4E	is	.	251.166	.	voice
.	.	4r	.	.	.	.	.
.	.	2r	.	.	.	.	.
=125	=125	=125	=125	=125	=125	=125	=125
1IV	A:maj	4r	.	.	253.171	newline	voice
.	.	8c#	Some-	.	.	.	.
.	.	[8c#	-times	.	.	.	.
.	.	2c#]	_	.	.	.	.
=126	=126	=126	=126	=126	=126	=126	=126
1V7	B:7	8B	this	.	255.202	.	voice
.	.	4B	old	.	.	.	.
.	.	[8B	farm	.	.	.	.
.	.	4.B]	_	.	.	.	.
.	.	8A	feels	.	.	.	.
=127	=127	=127	=127	=127	=127	=127	=127
1I	E:maj	8G#	_	.	257.233	.	voice
.	.	4G#	like	.	.	.	.
.	.	8G#	a	.	.	.	.
.	.	4A	long	.	.	.	.
.	.	4B	lost	.	.	.	.
=128	=128	=128	=128	=128	=128	=128	=128
1IV	A:maj	2c#	friend	D	259.264	.	voice
.	.	2r	.	.	.	.	.
=129	=129	=129	=129	=129	=129	=129	=129
1V	B:maj	4.B	hey,	.	261.294	newline	voice
.	.	8B	it's	.	.	.	.
.	.	4c#	good	.	.	.	.
.	.	8r	.	.	.	.	.
.	.	8G#	to	.	.	.	.
=130	=130	=130	=130	=130	=130	=130	=130
1V7	B:7	8A	be	.	263.316	.	voice
.	.	4.A	back	.	.	.	.
.	.	4G#	home	.	.	.	.
.	.	8D#	a-	.	.	.	.
.	.	[8E	-gain	D	.	.	.
=131	=131	=131	=131	=131	=131	=131	=131
1I	E:maj	2E]	_	.	265.338	.	voice
.	.	2r	.	.	.	.	.
=132	=132	=132	=132	=132	=132	=132	=132
1I	E:maj	2r	.	.	267.36	.	voice
.	.	8r	.	.	.	.	.
.	.	8E	I	.	.	.	.
.	.	8B	said	.	.	.	.
.	.	[8B	hey,	.	.	.	.
=133	=133	=133	=133	=133	=133	=133	=133
*>Label>>Outro	*>Label>>Outro	*>Label>>Outro	*>Label>>Outro	*>Label>>Outro	*>Label>>Outro	*>Label>>Outro	*>Label>>Outro
1V	B:maj	4B]	_	.	269.381	newline	voice
.	.	8B	it's	.	.	.	.
.	.	[8c#	good	.	.	.	.
.	.	4c#]	_	.	.	.	.
.	.	8r	.	.	.	.	.
.	.	8E	to	.	.	.	.
=134	=134	=134	=134	=134	=134	=134	=134
1V7	B:7	8A	be	.	271.387	.	voice
.	.	4A	back	.	.	.	.
.	.	[8G#	home	.	.	.	.
.	.	4.G#]	_	.	.	.	.
.	.	8D#	a-	.	.	.	.
=135	=135	=135	=135	=135	=135	=135	=135
1IV	A:maj	8F#	-gain	D	273.393	.	voice
.	.	[4.E	_	.	.	.	.
.	.	2E]	_	.	.	.	.
=136	=136	=136	=136	=136	=136	=136	=136
2IV	A:maj	1r	.	.	275.399	.	voice
2I	E:maj	.	.	.	276.402	.	voice
1r;	N	r;	.	.	282.169	.	r
1r;	N	r;	.	.	286.485	.	r
*-	*-	*-	*-	*-	*-	*-	*-
!!!BillboardChartDate: 1974/12/28, 1974/12/14
!!!BillboardPeak: 5, 5
!!!BillboardWeeksOnChart: 16, 16
!!!COC: John Denver
!!!ENC: Nathaniel Condit-Schultz
!!!EST: Awating manual error checking and editing.
!!!OTL: Back Home Again
!!!RDF**harte: Chris Harte's syntax, used by MIREX
!!!RDF**harmony: **recip + pitch class of root + harmonic quality
!!!RDF**leadinstrument: original McGill primary instrumentation annotation
!!!RDF**phrase: newline = linebreak in original McGill transcription
!!!RDF**timestamp: McGill audio timestamp in seconds
!!!RDT: 2017/01/12/
!!!SampleActualRank: 65, 42
!!!SampleID#: 235, 446
!!!SampleTargetRank: 65, 44
!!!MBID: ed28b556-0d1d-433b-96b4-8cda54da9718
